Adwaita++-Dark/mimetypes/16/shellscript.svg

<svg xmlns="http://www.w3.org/2000/svg" width="16" height="16" version="1.1">
 <path style="fill:#E6DDFF" d="M 16,11.900002 H 14.400002 V 13.5 H 16 Z M 16,2.3000009 H 14.400002 V 10.299999 H 16 Z M 3.200003,5.4999979 H 6.399998 V 10.299999 H 3.200003 Z M 1.599998,2.3000009 v 1.599998 H 0 v 1.599999 H 1.599998 V 10.299999 H 0 v 1.600003 H 1.599998 V 13.5 H 3.200003 V 11.900002 H 6.399998 V 13.5 H 8.000003 V 11.900002 H 9.600001 V 10.299999 H 8.000003 V 5.4999979 H 9.600001 V 3.8999989 H 8.000003 V 2.3000009 H 6.399998 v 1.599998 H 3.200003 v -1.599998 z"/>
</svg>

<svg height="16" width="16" xmlns="http://www.w3.org/2000/svg">
  <path d="m16 11.900002h-1.599998v1.599998h1.599998zm0-9.6000011h-1.599998v7.9999981h1.599998zm-12.799997 3.199997h3.199995v4.8000011h-3.199995zm-1.600005-3.199997v1.599998h-1.599998v1.599999h1.599998v4.8000011h-1.599998v1.600003h1.599998v1.599998h1.600005v-1.599998h3.199995v1.599998h1.600005v-1.599998h1.599998v-1.600003h-1.599998v-4.8000011h1.599998v-1.599999h-1.599998v-1.599998h-1.600005v1.599998h-3.199995v-1.599998z" fill="#e6ddff"/>
</svg>
